;START_OF_HEADER
;HEADER_VERSION:0.1
;FLAVOR:Griffin
;GENERATOR.NAME:Cura_SteamEngine
;GENERATOR.VERSION:4.12.1
;GENERATOR.BUILD_DATE:2021-11-18
;TARGET_MACHINE.NAME:Ultimaker S5
;EXTRUDER_TRAIN.0.INITIAL_TEMPERATURE:205
;EXTRUDER_TRAIN.0.MATERIAL.VOLUME_USED:15213
;EXTRUDER_TRAIN.0.MATERIAL.GUID:506c9f0d-e3aa-4bd4-b2d2-23e2425b1aa9
;EXTRUDER_TRAIN.0.NOZZLE.DIAMETER:0.4
;EXTRUDER_TRAIN.0.NOZZLE.NAME:AA 0.4
;BUILD_PLATE.TYPE:glass
;BUILD_PLATE.INITIAL_TEMPERATURE:60
;BUILD_VOLUME.TEMPERATURE:28
;PRINT.TIME:9290
;PRINT.GROUPS:1
;PRINT.SIZE.MIN.X:28.459
;PRINT.SIZE.MIN.Y:81.265
;PRINT.SIZE.MIN.Z:0.2
;PRINT.SIZE.MAX.X:321.012
;PRINT.SIZE.MAX.Y:166.225
;PRINT.SIZE.MAX.Z:4.4
;END_OF_HEADER
;Generated with Cura_SteamEngine 4.12.1
T0
M82 ;absolute extrusion mode

G92 E0
M109 S205
G280 S1
G0 Z20.001
G1 F1500 E-6.5
;LAYER_COUNT:151
;LAYER:0
M107
M204 S625
M205 X50 Y50
G1 F600 Z2.2
G0 F1285.7 X84.328 Y136.956 Z2.2
M204 S500
M205 X20 Y20
;TYPE:SKIRT
G1 F600 Z0.2
G1 F1500 E0
G1 F600 X83.567 Y138.233 E0.01957
G1 X82.551 Y139.318 E0.03915
G1 X81.328 Y140.162 E0.05871
G1 X79.952 Y140.726 E0.07829
G1 X78.488 Y140.983 E0.09787
G1 X78.028 Y140.998 E0.10393
G1 X60.028 Y140.998 E0.34094
G1 X59.164 Y140.941 E0.35234
G1 X57.788 Y141.505 E0.37192
G1 X56.324 Y141.762 E0.39149
G1 X55.864 Y141.777 E0.39755
G1 X51.014 Y141.777 E0.46142
G1 X49.536 Y141.618 E0.48099
G1 X48.126 Y141.147 E0.50056
G1 X46.849 Y140.386 E0.52014
G1 X46.224 Y139.849 E0.53099
G1 X45.524 Y140.748 E0.54599
G1 X44.398 Y141.718 E0.56556
G1 X43.091 Y142.426 E0.58513
G1 X41.663 Y142.839 E0.60471
G1 X40.464 Y142.943 E0.62055
G1 X35.389 Y142.943 E0.68738
G1 X33.911 Y142.784 E0.70695
G1 X32.501 Y142.313 E0.72653
G1 X31.224 Y141.552 E0.7461
G1 X30.139 Y140.536 E0.76567
G1 X29.295 Y139.313 E0.78524
G1 X28.731 Y137.937 E0.80482
G1 X28.474 Y136.473 E0.82439
G1 X28.459 Y136.013 E0.83045
G1 X28.459 Y88.363 E1.45788
G1 X28.618 Y86.885 E1.47745
G1 X29.089 Y85.475 E1.49703
G1 X29.85 Y84.198 E1.5166
G1 X30.866 Y83.113 E1.53617
G1 X32.089 Y82.269 E1.55574
G1 X33.465 Y81.705 E1.57532
G1 X34.929 Y81.448 E1.59489
G1 X35.389 Y81.433 E1.60095
G1 X40.464 Y81.433 E1.66778
G1 X41.942 Y81.592 E1.68735
G1 X42.395 Y81.717 E1.69354
G1 X55.864 Y81.717 E1.87089
G1 X57.342 Y81.876 E1.89046
G1 X58.348 Y82.188 E1.90433
G1 X59.643 Y81.821 E1.92206
G1 X60.842 Y81.717 E1.9379
G1 X78.053 Y81.717 E2.16453
G1 X79.531 Y81.876 E2.1841
G1 X80.941 Y82.347 E2.20367
G1 X82.218 Y83.108 E2.22325
G1 X83.303 Y84.124 E2.24282
G1 X84.147 Y85.347 E2.26239
G1 X84.711 Y86.723 E2.28197
G1 X84.968 Y88.187 E2.30154
G1 X84.983 Y88.647 E2.3076
G1 X84.983 Y118.468 E2.70026
G1 X84.824 Y119.946 E2.71984
G1 X84.353 Y121.356 E2.73941
G1 X83.592 Y122.633 E2.75899
G1 X83.041 Y123.272 E2.7701
G1 X83.733 Y124.109 E2.7844
G1 X84.441 Y125.416 E2.80397
G1 X84.854 Y126.844 E2.82354
G1 X84.958 Y128.043 E2.83939
G1 X84.958 Y134.068 E2.91872
G1 X84.799 Y135.546 E2.9383
G1 X84.328 Y136.956 E2.95787
M204 S625
M205 X50 Y50
G0 F1285.7 X83.908 Y136.861
M204 S500
M205 X20 Y20
G1 F600 X83.15 Y138.086 E2.97684
G1 X82.141 Y139.114 E2.99581
G1 X80.93 Y139.895 E3.01478
G1 X79.578 Y140.391 E3.03374
G1 X78.028 Y140.578 E3.0543
G1 X60.028 Y140.578 E3.29131
G1 X59.074 Y140.499 E3.30392
G1 X58.104 Y140.96 E3.31806
G1 X56.705 Y141.302 E3.33702
G1 X55.864 Y141.357 E3.34812
G1 X51.014 Y141.357 E3.41198
G1 X49.582 Y141.198 E3.43096
G1 X48.221 Y140.727 E3.44992
G1 X46.996 Y139.969 E3.46889
G1 X46.151 Y139.161 E3.48428
G1 X45.586 Y140.031 E3.49794
G1 X44.577 Y141.059 E3.51691
G1 X43.366 Y141.84 E3.53588
G1 X42.014 Y142.336 E3.55484
G1 X40.464 Y142.523 E3.5754
G1 X35.389 Y142.523 E3.64223
G1 X33.957 Y142.364 E3.6612
G1 X32.596 Y141.893 E3.68016
G1 X31.371 Y141.135 E3.69913
G1 X30.343 Y140.126 E3.7181
G1 X29.562 Y138.915 E3.73707
G1 X29.066 Y137.563 E3.75603
G1 X28.879 Y136.013 E3.77659
G1 X28.879 Y88.363 E4.40402
G1 X29.038 Y86.931 E4.42299
G1 X29.509 Y85.57 E4.44195
G1 X30.267 Y84.345 E4.46092
G1 X31.276 Y83.317 E4.47989
G1 X32.487 Y82.536 E4.49886
G1 X33.839 Y82.04 E4.51782
G1 X35.389 Y81.853 E4.53838
G1 X40.464 Y81.853 E4.60521
G1 X41.896 Y82.012 E4.62418
G1 X42.334 Y82.137 E4.63018
G1 X55.864 Y82.137 E4.80833
G1 X57.296 Y82.296 E4.8273
G1 X58.352 Y82.642 E4.84193
G1 X59.292 Y82.324 E4.855
G1 X60.842 Y82.137 E4.87556
G1 X78.053 Y82.137 E5.10218
G1 X79.485 Y82.296 E5.12115
G1 X80.846 Y82.767 E5.14012
G1 X82.071 Y83.525 E5.15908
G1 X83.099 Y84.534 E5.17805
G1 X83.88 Y85.745 E5.19703
G1 X84.376 Y87.097 E5.21599
G1 X84.563 Y88.647 E5.23655
G1 X84.563 Y118.468 E5.62921
G1 X84.404 Y119.9 E5.64818
G1 X83.933 Y121.261 E5.66715
G1 X83.175 Y122.486 E5.68611
G1 X82.438 Y123.266 E5.70024
G1 X83.074 Y123.93 E5.71235
G1 X83.855 Y125.141 E5.73133
G1 X84.351 Y126.493 E5.75029
G1 X84.538 Y128.043 E5.77085
G1 X84.538 Y134.068 E5.85018
G1 X84.379 Y135.5 E5.86915
G1 X83.908 Y136.861 E5.88811
M204 S625
M205 X50 Y50
G0 F1285.7 X83.489 Y136.764
M204 S500
M205 X20 Y20
G1 F600 X82.733 Y137.934 E5.90646
G1 X81.732 Y138.902 E5.92479
G1 X80.536 Y139.617 E5.94314
G1 X79.209 Y140.042 E5.96149
G1 X78.028 Y140.158 E5.97711
G1 X60.028 Y140.158 E6.21413
G1 X58.991 Y140.073 E6.22783
G1 X57.721 Y140.647 E6.24618
G1 X56.354 Y140.917 E6.26452
G1 X55.864 Y140.937 E6.27098
G1 X51.014 Y140.937 E6.33484
G1 X49.63 Y140.778 E6.35319
G1 X48.318 Y140.308 E6.37154
G1 X47.148 Y139.552 E6.38988
G1 X46.18 Y138.551 E6.40822
G1 X46.064 Y138.38 E6.41094
G1 X45.581 Y139.315 E6.42479
G1 X44.696 Y140.392 E6.44315
G1 X43.591 Y141.239 E6.46148
G1 X42.321 Y141.813 E6.47983
G1 X40.954 Y142.083 E6.49818
G1 X40.464 Y142.103 E6.50464
G1 X35.389 Y142.103 E6.57146
G1 X34.005 Y141.944 E6.58981
G1 X32.693 Y141.474 E6.60816
G1 X31.523 Y140.718 E6.6265
G1 X30.555 Y139.717 E6.64483
G1 X29.84 Y138.521 E6.66318
G1 X29.415 Y137.194 E6.68153
G1 X29.299 Y136.013 E6.69715
G1 X29.299 Y88.363 E7.32458
G1 X29.458 Y86.979 E7.34292
G1 X29.928 Y85.667 E7.36127
G1 X30.684 Y84.497 E7.37962
G1 X31.685 Y83.529 E7.39795
G1 X32.881 Y82.814 E7.4163
G1 X34.208 Y82.389 E7.43465
G1 X35.389 Y82.273 E7.45027
G1 X40.464 Y82.273 E7.5171
G1 X41.848 Y82.432 E7.53544
G1 X42.27 Y82.557 E7.54124
G1 X55.864 Y82.557 E7.72023
G1 X57.248 Y82.716 E7.73858
G1 X58.343 Y83.094 E7.75383
G1 X59.661 Y82.673 E7.77205
G1 X60.842 Y82.557 E7.78767
G1 X78.053 Y82.557 E8.0143
G1 X79.437 Y82.716 E8.03264
G1 X80.749 Y83.186 E8.05099
G1 X81.919 Y83.942 E8.06933
G1 X82.887 Y84.943 E8.08767
G1 X83.602 Y86.139 E8.10602
G1 X84.027 Y87.466 E8.12437
G1 X84.143 Y88.647 E8.13999
G1 X84.143 Y118.468 E8.53266
G1 X83.984 Y119.852 E8.551
G1 X83.514 Y121.164 E8.56935
G1 X82.758 Y122.334 E8.58769
G1 X81.797 Y123.267 E8.60533
G1 X82.407 Y123.811 E8.61609
G1 X83.254 Y124.916 E8.63442
G1 X83.828 Y126.186 E8.65277
G1 X84.098 Y127.553 E8.67112
G1 X84.118 Y128.043 E8.67758
G1 X84.118 Y134.068 E8.75691
G1 X83.959 Y135.452 E8.77526
G1 X83.489 Y136.764 E8.79361
M204 S625
M205 X50 Y50
G0 F1285.7 X83.07 Y136.662
M204 S500
M205 X20 Y20
G1 F600 X82.318 Y137.776 E8.8113
G1 X81.324 Y138.681 E8.82901
G1 X80.146 Y139.328 E8.8467
G1 X78.848 Y139.678 E8.8644
G1 X78.028 Y139.738 E8.87523
G1 X60.028 Y139.738 E9.11224
G1 X58.909 Y139.618 E9.12706
G1 X57.982 Y140.107 E9.14086
G1 X56.684 Y140.457 E9.15856
G1 X55.864 Y140.517 E9.16939
G1 X51.014 Y140.517 E9.23325
G1 X49.679 Y140.358 E9.25095
G1 X48.42 Y139.889 E9.26864
G1 X47.306 Y139.137 E9.28634
G1 X46.401 Y138.143 E9.30404
G1 X45.959 Y137.399 E9.31544
G1 X45.506 Y138.607 E9.33243
G1 X44.754 Y139.721 E9.35012
G1 X43.76 Y140.626 E9.36782
G1 X42.582 Y141.273 E9.38552
G1 X41.284 Y141.623 E9.40322
G1 X40.464 Y141.683 E9.41405
G1 X35.389 Y141.683 E9.48087
G1 X34.054 Y141.524 E9.49858
G1 X32.795 Y141.055 E9.51627
G1 X31.681 Y140.303 E9.53396
G1 X30.776 Y139.309 E9.55167
G1 X30.129 Y138.131 E9.56936
G1 X29.779 Y136.833 E9.58706
G1 X29.719 Y136.013 E9.59789
G1 X29.719 Y88.363 E10.22532
G1 X29.878 Y87.028 E10.24302
G1 X30.347 Y85.769 E10.26071
G1 X31.099 Y84.655 E10.27841
G1 X32.093 Y83.75 E10.29611
G1 X33.271 Y83.103 E10.3138
G1 X34.569 Y82.753 E10.33151
G1 X35.389 Y82.693 E10.34233
G1 X40.464 Y82.693 E10.40916
G1 X41.799 Y82.852 E10.42686
G1 X42.207 Y82.977 E10.43248
G1 X55.864 Y82.977 E10.6123
G1 X57.199 Y83.136 E10.63001
G1 X58.357 Y83.561 E10.64625
G1 X59.362 Y83.173 E10.66044
G1 X60.842 Y82.977 E10.68009
G1 X78.053 Y82.977 E10.90672
G1 X79.388 Y83.136 E10.92442
G1 X80.647 Y83.605 E10.94211
G1 X81.761 Y84.357 E10.95981
G1 X82.666 Y85.351 E10.97751
G1 X83.313 Y86.529 E10.99521
G1 X83.663 Y87.827 E11.01291
G1 X83.723 Y88.647 E11.02373
G1 X83.723 Y118.468 E11.4164
G1 X83.564 Y119.803 E11.4341
G1 X83.095 Y121.062 E11.45179
G1 X82.343 Y122.176 E11.46949
G1 X81.349 Y123.081 E11.48719
G1 X81.062 Y123.262 E11.49166
G1 X81.736 Y123.753 E11.50264
G1 X82.641 Y124.747 E11.52034
G1 X83.288 Y125.925 E11.53803
G1 X83.638 Y127.223 E11.55574
G1 X83.698 Y128.043 E11.56656
G1 X83.698 Y134.068 E11.6459
G1 X83.539 Y135.403 E11.6636
G1 X83.07 Y136.662 E11.68129
M204 S625
M205 X50 Y50
G0 F1285.7 X82.651 Y136.557
M204 S500
M205 X20 Y20
G1 F600 X81.902 Y137.611 E11.69832
G1 X80.919 Y138.45 E11.71533
G1 X79.76 Y139.024 E11.73236
G1 X78.496 Y139.297 E11.74939
G1 X78.028 Y139.318 E11.75556
G1 X60.028 Y139.318 E11.99257
G1 X58.755 Y139.229 E12.00937
G1 X57.596 Y139.803 E12.0264
G1 X56.332 Y140.076 E12.04343
G1 X55.864 Y140.097 E12.0496
G1 X51.014 Y140.097 E12.11346
G1 X49.731 Y139.938 E12.13049
G1 X48.525 Y139.47 E12.14752
G1 X47.471 Y138.721 E12.16454
G1 X46.632 Y137.738 E12.18156
G1 X46.058 Y136.579 E12.19859
G1 X45.785 Y135.315 E12.21562
G1 X45.764 Y134.847 E12.22179
G1 X45.764 Y104.447 E12.62208
G1 X45.714 Y104.447 E12.62273
G1 X45.714 Y136.013 E13.03838
G1 X45.555 Y137.296 E13.0554
G1 X45.087 Y138.502 E13.07243
G1 X44.338 Y139.556 E13.08946
G1 X43.355 Y140.395 E13.10648
G1 X42.196 Y140.969 E13.12351
G1 X40.932 Y141.242 E13.14053
G1 X40.464 Y141.263 E13.1467
G1 X35.389 Y141.263 E13.21353
G1 X34.106 Y141.104 E13.23055
G1 X32.9 Y140.636 E13.24758
G1 X31.846 Y139.887 E13.26461
G1 X31.007 Y138.904 E13.28163
G1 X30.433 Y137.745 E13.29866
G1 X30.16 Y136.481 E13.31568
G1 X30.139 Y136.013 E13.32185
G1 X30.139 Y88.363 E13.94928
G1 X30.298 Y87.08 E13.9663
G1 X30.766 Y85.874 E13.98333
G1 X31.515 Y84.82 E14.00036
G1 X32.498 Y83.981 E14.01738
G1 X33.657 Y83.407 E14.03441
G1 X34.921 Y83.134 E14.05143
G1 X35.389 Y83.113 E14.0576
G1 X40.464 Y83.113 E14.12443
G1 X41.747 Y83.272 E14.14145
G1 X42.138 Y83.397 E14.14686
G1 X55.864 Y83.397 E14.32759
G1 X57.147 Y83.556 E14.34461
G1 X58.361 Y84.029 E14.36177
G1 X59.11 Y83.691 E14.37259
G1 X60.374 Y83.418 E14.38962
G1 X60.842 Y83.397 E14.39579
G1 X78.053 Y83.397 E14.62241
G1 X79.336 Y83.556 E14.63943
G1 X80.542 Y84.024 E14.65647
G1 X81.596 Y84.773 E14.67349
G1 X82.435 Y85.756 E14.69051
G1 X83.009 Y86.915 E14.70754
G1 X83.282 Y88.179 E14.72457
G1 X83.303 Y88.647 E14.73074
G1 X83.303 Y118.468 E15.1234
G1 X83.144 Y119.751 E15.14042
G1 X82.676 Y120.957 E15.15746
G1 X81.927 Y122.011 E15.17448
G1 X80.944 Y122.85 E15.1915
G1 X80.172 Y123.261 E15.20302
G1 X81.067 Y123.762 E15.21652
G1 X82.021 Y124.635 E15.23355
G1 X82.733 Y125.714 E15.25057
G1 X83.16 Y126.935 E15.2676
G1 X83.278 Y128.043 E15.28228
G1 X83.278 Y134.068 E15.36161
G1 X83.119 Y135.351 E15.37863
G1 X82.651 Y136.557 E15.39567
M204 S625
M205 X50 Y50
G0 F1285.7 X82.232 Y136.446
M204 S500
M205 X20 Y20
G1 F600 X81.488 Y137.438 E15.41199
G1 X80.516 Y138.208 E15.42832
G1 X79.379 Y138.705 E15.44466
G1 X78.028 Y138.898 E15.46263
G1 X60.028 Y138.898 E15.69964
G1 X58.739 Y138.719 E15.71678
G1 X57.8 Y139.272 E15.73113
G1 X56.609 Y139.619 E15.74746
G1 X55.864 Y139.677 E15.7573
G1 X51.014 Y139.677 E15.82116
G1 X49.784 Y139.518 E15.83749
G1 X48.636 Y139.051 E15.85381
G1 X47.644 Y138.307 E15.87014
G1 X46.874 Y137.335 E15.88647
G1 X46.377 Y136.198 E15.90281
G1 X46.184 Y134.847 E15.92078
G1 X46.184 Y104.027 E16.3266
G1 X45.294 Y104.027 E16.33831
G1 X45.294 Y136.013 E16.75949
G1 X45.135 Y137.243 E16.77582
G1 X44.668 Y138.391 E16.79214
G1 X43.924 Y139.383 E16.80846
G1 X42.952 Y140.153 E16.82479
G1 X41.815 Y140.65 E16.84113
G1 X40.464 Y140.843 E16.8591
G1 X35.389 Y140.843 E16.92593
G1 X34.159 Y140.684 E16.94226
G1 X33.011 Y140.217 E16.95858
G1 X32.019 Y139.473 E16.9749
G1 X31.249 Y138.501 E16.99123
G1 X30.752 Y137.364 E17.00757
G1 X30.559 Y136.013 E17.02554
G1 X30.559 Y88.363 E17.65297
G1 X30.718 Y87.133 E17.6693
G1 X31.185 Y85.985 E17.68562
G1 X31.929 Y84.993 E17.70194
G1 X32.901 Y84.223 E17.71827
G1 X34.038 Y83.726 E17.73461
G1 X35.389 Y83.533 E17.75258
G1 X40.464 Y83.533 E17.8194
G1 X41.694 Y83.692 E17.83574
G1 X42.068 Y83.817 E17.84093
G1 X55.864 Y83.817 E18.02258
G1 X57.094 Y83.976 E18.03892
G1 X58.242 Y84.443 E18.05523
G1 X58.354 Y84.507 E18.05693
G1 X59.491 Y84.01 E18.07327
G1 X60.842 Y83.817 E18.09124
G1 X78.053 Y83.817 E18.31787
G1 X79.283 Y83.976 E18.3342
G1 X80.431 Y84.443 E18.35052
G1 X81.423 Y85.187 E18.36684
G1 X82.193 Y86.159 E18.38317
G1 X82.69 Y87.296 E18.39951
G1 X82.883 Y88.647 E18.41748
G1 X82.883 Y118.468 E18.81014
G1 X82.724 Y119.698 E18.82648
G1 X82.257 Y120.846 E18.84279
G1 X81.513 Y121.838 E18.85912
G1 X80.541 Y122.608 E18.87545
G1 X79.404 Y123.105 E18.89179
G1 X78.648 Y123.253 E18.90193
G1 X79.847 Y123.569 E18.91826
G1 X80.926 Y124.179 E18.93458
G1 X81.815 Y125.045 E18.95092
G1 X82.453 Y126.107 E18.96724
G1 X82.8 Y127.298 E18.98357
G1 X82.858 Y128.043 E18.99341
G1 X82.858 Y134.068 E19.07274
G1 X82.699 Y135.298 E19.08907
G1 X82.232 Y136.446 E19.10539
M204 S625
M205 X50 Y50
G0 F1285.7 X81.813 Y136.331
M204 S500
M205 X20 Y20
G1 F600 X81.074 Y137.257 E19.12099
G1 X80.115 Y137.953 E19.13659
G1 X79.006 Y138.368 E19.15219
G1 X78.028 Y138.478 E19.16515
G1 X60.028 Y138.478 E19.40216
G1 X58.854 Y138.319 E19.41776
G1 X58.654 Y138.249 E19.42055
G1 X57.951 Y138.732 E19.43178
G1 X56.842 Y139.147 E19.44737
G1 X55.864 Y139.257 E19.46033
G1 X51.014 Y139.257 E19.52419
G1 X49.84 Y139.098 E19.53979
G1 X48.751 Y138.632 E19.55539
G1 X47.825 Y137.893 E19.57099
G1 X47.129 Y136.934 E19.58659
G1 X46.714 Y135.825 E19.60218
G1 X46.604 Y134.847 E19.61514
G1 X46.604 Y103.607 E20.02649
G1 X44.874 Y103.607 E20.04927
G1 X44.874 Y136.013 E20.47597
G1 X44.715 Y137.187 E20.49157
G1 X44.249 Y138.276 E20.50717
G1 X43.51 Y139.202 E20.52277
G1 X42.551 Y139.898 E20.53837
G1 X41.442 Y140.313 E20.55396
G1 X40.464 Y140.423 E20.56692
G1 X35.389 Y140.423 E20.63375
G1 X34.215 Y140.264 E20.64935
G1 X33.126 Y139.798 E20.66494
G1 X32.2 Y139.059 E20.68054
G1 X31.504 Y138.1 E20.69615
G1 X31.089 Y136.991 E20.71174
G1 X30.979 Y136.013 E20.7247
G1 X30.979 Y88.363 E21.35212
G1 X31.138 Y87.189 E21.36772
G1 X31.604 Y86.1 E21.38332
G1 X32.343 Y85.174 E21.39892
G1 X33.302 Y84.478 E21.41452
G1 X34.411 Y84.063 E21.43011
G1 X35.389 Y83.953 E21.44307
G1 X40.464 Y83.953 E21.5099
G1 X41.638 Y84.112 E21.5255
G1 X41.995 Y84.237 E21.53048
G1 X55.864 Y84.237 E21.71309
G1 X57.038 Y84.396 E21.72869
G1 X58.127 Y84.862 E21.74429
G1 X58.35 Y85.016 E21.74786
G1 X59.295 Y84.517 E21.76193
G1 X60.45 Y84.254 E21.77753
G1 X60.842 Y84.237 E21.7827
G1 X78.053 Y84.237 E22.00932
G1 X79.227 Y84.396 E22.02492
G1 X80.316 Y84.862 E22.04052
G1 X81.242 Y85.601 E22.05612
G1 X81.938 Y86.56 E22.07172
G1 X82.353 Y87.669 E22.08731
G1 X82.463 Y88.647 E22.10027
G1 X82.463 Y118.468 E22.49293
G1 X82.304 Y119.642 E22.50853
G1 X81.838 Y120.731 E22.52413
G1 X81.099 Y121.657 E22.53973
G1 X80.14 Y122.353 E22.55533
G1 X79.031 Y122.768 E22.57092
G1 X78.053 Y122.878 E22.58388
G1 X67.663 Y122.878 E22.72069
G1 X67.663 Y123.633 E22.73063
G1 X78.028 Y123.633 E22.86711
G1 X79.202 Y123.792 E22.88271
G1 X80.291 Y124.258 E22.89831
G1 X81.217 Y124.997 E22.91391
G1 X81.913 Y125.956 E22.92951
G1 X82.328 Y127.065 E22.9451
G1 X82.438 Y128.043 E22.95806
G1 X82.438 Y134.068 E23.0374
G1 X82.279 Y135.242 E23.053
G1 X81.813 Y136.331 E23.06859
M204 S625
M205 X50 Y50
G0 F1285.7 X81.395 Y136.209
M204 S500
M205 X20 Y20
G1 F600 X80.662 Y137.065 E23.08343
G1 X79.719 Y137.682 E23.09827
G1 X78.642 Y138.01 E23.1131
G1 X78.028 Y138.058 E23.12121
G1 X60.028 Y138.058 E23.35822
G1 X58.913 Y137.899 E23.37305
G1 X58.569 Y137.772 E23.37788
G1 X58.049 Y138.186 E23.38663
G1 X57.028 Y138.663 E23.40147
G1 X55.864 Y138.837 E23.41696
